!!!ONB: MCCC : IJH0422_02 : Extracted Monophonic Melody
!!!COM: Haydn, Joseph
!!!OPR: String Quartet in C major
!!!OMV: 2
!!!SCT: Hob.III:72 ; Op.74 No.1
!!!ODT: 1793///
**kern
*thru
*k[f#]
*G:
*clefF
*M3/8
8d
8B
=1
8G
8b
8g
=2
8g
8f#
8f#
=3
8f#
8r
8r
=4
8c
8r
8r
=5
8r
8ee
8cc
=6
8a#
8b
8b
=7
8b
8r
8r
=8
8r
8gg
8gg
=9
8r
8gg
8gg
=10
8r
8gg
8gg
=11
8bb
8gg
8dd
=12
8cc
8a
8f#
=13
8ff#
8gg
8r
=14
8aa#
8bb
8r
=15
4ddd
32ccc
32bb
32aa
32gg
=16
8gg
8ff#
8ff#
=17
8ee-
8dd
8r
=18
8gg#
8aa
8r
=19
4eee
32ddd
32ccc
32bb
32aa
=20
8ccc
8bb
8bb
=21
4bb
32aa
32gg
32ff#
32ee
=22
8ee
8dd#
8dd#
=23
4bb
32aa
32gg
32ff#
32ee
=24
8dd
8cc#
8cc#
=25
16ee
16dd
16ff#
16ee
16gg
16ff#
=26
8ff#
8ee
8ee
=27
8r
8aa
8aa
=28
8r
8aa
8aa
=29
8r
8aa
8aa
=30
8gg#
8gg
8ff#
=31
8ee
8dd
8cc#
=32
8ddd
8ccc#
8bb
=33
8aa#
8bb
8gg#
=34
8aa
8gg
8ff#
=35
8ee
8gg
8bb
=36
4dd
8ee
=37
4.ddd
=38
16ccc#
16bb
8bb
8r
=39
4.r
=40
4.r
=41
4.ddd
=42
16ccc#
16bb
8bb
8r
=43
4.r
=44
4.r
=45
16ddd
16ccc#
8ccc#
8r
=46
16eee
16ddd
8ddd
8r
=47
4.r
=48
8ddd
8bb
16gg
16ee
=49
4dd
8ee
=50
16dd
16a
16ff#
16a
16aa
16a
=51
16gg
16a
16ee
16a
16cc#
16a
=52
16dd
16a
16ff#
16a
16aa
16a
=53
16gg
16a
16ee
16a
16cc#
16a
=54
16dd
16a
16f#
16a
16dd
16a
=55
8dd
8d
8d
=56
8d
8r
8r
=57
8r
8dd
8dd
=58
8r
8dd
8dd
=59
8r
8dd
8dd
=60
8r
8dd
8dd
=61
8r
8dd
8dd
=62
8ee-
8b-
8g
=63
8e-
8gg
8ee-
=64
8ee-
8dd
8dd
=65
8dd
8r
8r
=66
8r
8a-
8f
=67
8d
8ccc
8aa-
=68
8ff#
8gg
8gg
=69
8gg
8ee-
8ee-
=70
8r
8ee-
8ee-
=71
8r
8ee-
8ee-
=72
8r
8ee
8ee
=73
8r
8ff
8ff
=74
8r
8ff#
8ff#
=75
8r
8gg
8gg
=76
8r
8gg#
8gg#
=77
8r
8aa
8aa
=78
8ccc
8dd#
8dd#
=79
4ee
8r
=80
4.eee
=81
16ccc#
16ddd
8ddd
8r
=82
4.r
=83
4.r
=84
4.ddd
=85
16bb
16ccc
8ccc
8r
=86
4.r
=87
4.r
=88
16ddd
16ccc#
8ccc#
8r
=89
16eee
16ddd
8ddd
8r
=90
16eee
16ddd
8ddd
8r
=91
16eee
16ddd
8ddd
8r
=92
16ddd
16ccc
8ccc
8r
=93
8bb
8r
8r
=94
4.r
=95
8r
16dd
32ee
32ff#
32gg
32aa
32bb
32ccc
=96
16ddd
16ddd
16ddd
16ddd
16ddd
16ddd
=97
8ddd
8r
8r
=98
4.r
=99
8r
16g
32a
32b
32cc
32dd
32ee
32ff#
=100
16gg
16gg
16gg
16gg
16gg
16gg
=101
32gg
32aa
32gg
32ff#
16gg
16gg
16gg
16gg
=102
32gg
32aa
32gg
32ff#
16gg
16gg
16gg
16gg
=103
32gg
32aa
32gg
32ff#
16gg
16gg
16gg
16gg
=104
24bb
24aa
24gg
24bb
24aa
24gg
24ff#
24ee
24dd
=105
24cc
24b
24a
24g
24f#
24e
24d
24e
24f#
=106
8ff#
8gg
8r
=107
8aa#
8bb
8r
=108
4ddd
32ccc
32bb
32aa
32gg
=109
8gg
8ff#
8ff#
=110
8ee-
8dd
8r
=111
8gg#
8aa
8r
=112
4eee
32ddd
32ccc
32bb
32aa
=113
8ccc
8bb
8bb
=114
8ggg
8fff#
8eee
=115
8ddd#
8eee
8ccc#
=116
8ddd
8ccc
8bb
=117
8aa
8ccc
8eee
=118
4gg
8aa
=119
4.gg
=120
16ff#
16ee
8ee
8r
=121
4.r
=122
4.r
=123
4.gg
=124
16ff#
16ee
8ee
8r
=125
4.r
=126
4.r
=127
16gg
16ff#
8ff#
8r
=128
16aa
16gg
8gg
8r
=129
4.r
=130
8gg
8ee
16cc
16a
=131
4g
8a
=132
4g
8r
=133
4.r
=134
4.r
=135
8r
8aa
8ff#
=136
8dd
8ee
8ff#
=137
8gg
8dd
8b
=138
8ee
8cc
8a
=139
4g
8a
=140
4g
8r
=141
4.r
=142
4.r
=143
8r
16aa
16gg#
16aa
16ff#
=144
8dd#
8dd#
8dd#
=145
8dd#
8dd#
8dd#
=146
4.dd#
=147
4.ee
=148
8r
8g#
8e
=149
8c#
8cc#
8g#
=150
8e
8ee
8cc#
=151
8a
8ee
8cc#
=152
8g
8ee
8ee
=153
8dd
8b
8g
=154
8cc
8a
8f#
=155
8g
8d
8d
=156
4b
32a
32g
32f#
32e
=157
8d
8d
8d
=158
12..cc[
96cc]
32b
32a
32g
32f#
32e
32d
32c
=159
8B
8dd
8dd
=160
4bb
32aa
32gg
32ff#
32ee
=161
8dd
8dd
8dd
=162
12..ccc[
96ccc]
32bb
32aa
32gg
32ff#
32ee
32dd
32cc
=163
8b
8ddd
8ddd
=164
4ddd
32ccc
32bb
32aa
32gg#
=165
16aa
16ccc
8eee
8r
=166
8r
8f#
8r
=167
16g
16d
16b
16d
16dd
16d
=168
16cc
16d
16a
16d
16f#
16d
=169
16g
16d
16b
16d
16dd
16d
=170
16cc
16d
16a
16d
16f#
16d
=171
16g
16d
16B
16d
16g
16d
=172
8g
8B
8B
=173
8B
8r
8r
==
*-
